!!!OTL: Die Gefangene (114a), S. 269
!!!id: T0277
**kern
*clefG2
*k[b-]
*F:
{8f
=1
8f
4.a
=2yy
8a
=3
8a
8a
8g
8f
=4
8e
8g
8b-}
8r
=5
{4.b-
8b-
=6
8b-
8b-
8dd
8dd
=7
4cc}
4r
=8
{4.cc
8a
=9
8ff
8ee
8dd
8cc
=10
8g
8dd
8dd}
8r
=11
{4.cc
8ff
=12
8cc
8cc
8b-
8cc
=13
4a}
4r
==
*-
!!!minrhy: 8
!!!meters: 2/4 ]  ZZ[4
!!!cut: Die Gefangene (114a), S. 269
!!!reg: Luxemburg
!!!trd: Singendes Volk, Esch-Alzette 1937 posth.
!!!rhy1:   X_.X  XXXX  XXX0
!!!rhy2: X_.X  XXXX  X_0_
!!!key: T0277  08  F 2/4 ]  ZZ[4
!!!mod: HEPTATONIK IONISCH]  AMBITUS[9b
!!!kad: 4563
!!!akz: 33-7_445_5+12_553_
!!!fot: 'a__b__c__as"
!!!for: 'a__aw_a__aw_
!!!fok: 'Va_/__~a_\__
!! PHRAS[VOLLTAKTIG]
!!!fkt: Liebeslieder
!!!bem1: StraPen, fff Witry, 31.1.1933;
!!!bem2: (114b)- Heffingen, Anna Kimmel, M&auml;rz 1933
!!!bem3: (114c)- Blascheid, fff Hitting, 1902
!! THILL, Mathias:
!! PR[21] 2K[0] 2G[6] 3K[3] 3G[0] 4A[6] 4Ü[0] 5A[6] 6K[6] 6G[0]
!! 7K[0] 7G[0] 8A[0] MEHR[0] SI[26] ABS[34] SR[6] SP[21]
!! ST[12] 2k[6] 2g[24] 3k[12] 3g[0] 4d[12] 4ü[0] 5d[0] 6k[0] 6g[0]
!! 7k[0] 7g[0] 8d[0] mehr[0] si[53] dm[-27] sr[29] sp[24]
!! 1F[5] 2F[73] 3F[11] 4F[0] LF[0] 2P[0] 3P[11] 4P[0] TRI[0] DF[4] AB[37]
!! TF[0] U3K[0] U3[0] U4[0] U4Ü[0] U5[0] U6K[0] U6[0] U7K[0] U7[0]
!! N1[0] N2K[0] N2[6] N3K[0] N3[11] N4[6] N4Ü[0] N5[43] N6K[0] N6[17]
!!!n7k: 0] N7[6] O1[11] O2K[0] O2[0] O3K[0] O3[0] HÖ[0
!!!RNB: symbol: &auml;      = a umlaut  (UTF-8: Å„)
